packages/foundations/assets/icons/functional/images/transportation/electric_scooter_16_inverted.svg

<svg width="16" height="16" viewBox="0 0 16 16" fill="none" xmlns="http://www.w3.org/2000/svg">
<g clip-path="url(#clip0_2214_6802)">
<path fill-rule="evenodd" clip-rule="evenodd" d="M11.5159 1.85591L10.4579 2.20684C9.94862 2.35959 9.63145 2.85721 9.69637 3.37471L10.8461 8.69304C10.1315 8.99877 9.56436 9.42243 9.15605 9.96685C8.78919 10.456 8.52121 11.032 8.3499 11.6907L4.91113 11.6916C4.62851 11.1449 4.05797 10.7713 3.40005 10.7713C2.46135 10.7713 1.70005 11.5324 1.70005 12.4713C1.70005 13.4102 2.46135 14.1713 3.40005 14.1713C4.1352 14.1713 4.76127 13.7049 4.99843 13.0517C7.63782 13.0517 8.95751 13.0489 8.95751 13.0489C9.06944 13.0489 9.49058 12.9226 9.57074 12.4834C9.68694 11.7883 9.91292 11.2244 10.244 10.7828C10.4607 10.494 10.7608 10.2494 11.1509 10.0507L11.4199 11.2478C11.0994 11.5569 10.9 11.9909 10.9 12.4713C10.9 13.4102 11.6613 14.1713 12.6 14.1713C13.539 14.1713 14.3 13.4103 14.3 12.4713C14.3 11.614 13.6536 10.844 12.7088 10.7744C12.7088 10.78 12.1723 8.33327 11.0993 3.43411L11.9066 3.15857C12.2514 3.0543 12.4799 2.65256 12.3626 2.31187C12.2452 1.97119 11.9066 1.74841 11.5159 1.85591ZM5.9721 9.28204C5.09119 8.43156 4.15453 8.15812 3.01779 8.29621C2.64497 8.34149 2.37946 8.68043 2.42475 9.05325C2.47004 9.42606 2.80898 9.69157 3.18179 9.64628C3.92966 9.55543 4.45656 9.70925 5.02748 10.2605C5.29766 10.5213 5.72814 10.5137 5.98899 10.2436C6.24984 9.97337 6.24228 9.54289 5.9721 9.28204Z" fill="#1A1C1F"/>
</g>
<defs>
<clipPath id="clip0_2214_6802">
<rect width="16" height="16" fill="white"/>
</clipPath>
</defs>
</svg>

<svg xmlns="http://www.w3.org/2000/svg" width="16" height="16" fill="none"><g clip-path="url(#a)"><path fill="#1A1C1F" fill-rule="evenodd" d="m11.516 1.856-1.058.35a1.08 1.08 0 0 0-.762 1.169l1.15 5.318c-.714.306-1.282.73-1.69 1.274a4.9 4.9 0 0 0-.806 1.724H4.91a1.7 1.7 0 1 0 .087 1.36q3.96-.001 3.96-.002c.111 0 .533-.126.613-.566q.175-1.04.673-1.7.324-.434.907-.732l.269 1.197a1.7 1.7 0 1 0 1.289-.473q0 .007-1.61-7.34l.808-.276c.344-.105.573-.506.456-.847-.118-.34-.456-.564-.847-.456M5.972 9.282c-.88-.85-1.817-1.124-2.954-.986a.68.68 0 1 0 .164 1.35c.748-.09 1.275.063 1.845.614a.68.68 0 0 0 .945-.978" clip-rule="evenodd"/></g><defs><clipPath id="a"><path fill="#fff" d="M0 0h16v16H0z"/></clipPath></defs></svg>
